X:260
T: Hill House
S: Reavy Collection: "Music of Corktown"
Z: B.Black
M: 6/8
L: 1/8
R: jig
K: G
d/c/|: BGB cBc|dBb d2g|fed cBA|GBe d2c|
BGB cBc|dBb d2g|fed cBA|1 G3 G2 d/c/ :|2\
G3 G2||
B/d/|: g3 f3|efg d2c|BAG Bcd|e3 e2f|
a3 g3|f2e f2e|1 dgf e2d|B3 GBd :|
2 dfa gba|g3-g3 ||
